X: 36
T: The Silk-Worm
%R: air, march
B: "The Everyday Song Book", 1927
F: http://www.library.pitt.edu/happybirthday/pdf/The_Everyday_Song_Book.pdf
Z: 2017 John Chambers <jc:trillian.mit.edu>
M: 4/4
L: 1/4
K: D
% - - - - - - - - - - - - - - -
[| D E F G | A B A d | D E F G | A B A d |
w: Here's a bus-y lit-tle spin-ner Work-ing hard to earn her din-ner:
%
   c B A G | F G A F | E F G A | B c e d |]
w: I am sure she nev-er guess-es What be-comes of all her dress-es.
% - - - - - - - - - - - - - - -

%%sep 1 1 500
%%sep 1 1 500

